!!!OTL: IHR CHRISTEN GROSS UND KLEIN
!!!ARE: Europa, Mitteleuropa, Deutschland, Schlesien, Neisse
!!!SCT: E2079
!!!YEM: Copyright 1995, estate of Helmut Schaffrath.
**kern
*ICvox
*Ivox
*M4/4
*k[b-]
*F:
{4c
=1
4f
8f
8a
4a
4g
=2
2f
4r}
{8f
8g
=3
4a
8a
8cc
4cc
4b-
=4
2a
4r}
{8g
8a
=5
2b-
4a
4a
=6
2g
4r}
{8cc
8a
=7
4g
8g
8f
4e
8f
8a
=8
2g
4r}
{8cc
8a
=9
4g
8g
8f
4e
8f
8a
=10
2g
4r}
{8g
8b-
=11
2a
4g
4g
=12
2f
4r}
==
!!!AGN: geistlich, Marien - Lied
!!!ONB: ESAC (Essen Associative Code) Database: ERK3
!!!AMT: simple quadruple
!!!AIN: vox
!!!EED: Helmut Schaffrath
!!!EEV: 1.0
*-
